!! B0055] ST[TB
!!!OTL: Farewell to the Warriors
!!!ARE: America, USA
!! Ethnic Group: American Indian, Chippewa
!!!YOR: Densmore, Fr.: Chippewa Music, Washington 1910
!!!SCT: C0000
!!!YEM: Copyright 1995, estate of Helmut Schaffrath.
**kern
*ICvox
*Ivox
!! Mixed meters:  3/4; 2/4
*M2/4
*k[f#c#]
*D:
{8.d
16d
=1
4.a
8dd
8.a
16g
=2
2a}
=3
{8dd
8dd
=4
4.ccn
8dd
=5
*M3/4
4a
2g}
=6
{8fn
8d
4.fn
8a
=7
8.fn
16d
2fn}
=8
{4.a
24g
24a
24g
8fn
8d
=9
*M2/4
8.g
16fn
8.d
16cn
=10
2d}
==
!!!AGN: NN
!! Zum Vergleich mit der Komposition von Griffes. Grundton ge„ndert.
!!    Die Tonbandangabe bezieht sich auf Griffes. Weitere Chippewa-
!!!AMT: irregular
!!!AIN: vox
!!!EED: Helmut Schaffrath
!!!EEV: 1.0
*-
